svg/furkot/freepik/restaurant.svg

<svg viewBox="0 0 512 512" xmlns="http://www.w3.org/2000/svg"><path d="m503.459 423.132-143.684-145.947c-5.657 3.394-10.183 5.657-16.971 7.919-6.786 2.264-14.707 3.395-22.627 3.395-9.05 0-18.101-2.263-26.021-4.527l-46.386 48.65c5.657 4.525 13.576 6.788 21.495 7.918 10.184 0 20.366-3.393 28.284-11.313l1.132-1.13 143.684 152.735c5.657 5.657 13.576 9.05 21.496 9.05s15.84-3.393 21.496-9.05l18.102-18.102c5.657-5.657 9.05-13.577 9.05-21.496 0-7.921-3.393-13.577-9.05-18.102zm-343.936-191.201 42.992-40.73c-2.263-7.919-3.394-15.839-3.394-23.758 0-13.577 4.525-27.153 11.314-38.467l-90.51-93.904c-13.576-13.576-37.335-13.576-50.911 0-23.759 23.758-24.891 62.225-3.395 88.246z"/><path d="m295.287 245.506c6.789 6.788 15.84 10.183 24.89 10.183 9.051 0 18.101-3.395 24.891-10.183l114.268-114.268c4.525-4.526 4.525-11.314 0-15.839l-2.264-2.263c-2.262-2.263-4.525-3.394-7.918-3.394-3.395 0-5.657 1.131-7.921 3.394l-75.803 75.802c-3.393 3.394-7.918 4.525-12.443 4.525-4.527 0-9.052-2.263-12.445-4.525l-2.264-2.263c-6.788-6.788-6.788-16.971 0-23.759l75.803-75.801c4.526-4.526 4.526-11.314 0-15.84l-2.264-2.262c-2.261-2.263-4.525-3.394-7.918-3.394-3.395 0-5.657 1.131-7.921 3.394l-75.802 75.801c-3.394 3.394-7.919 4.526-12.444 4.526-4.527 0-9.051-2.263-12.445-4.526l-2.263-2.262c-3.393-3.394-4.526-7.92-4.526-12.445 0-4.526 2.264-9.051 4.526-12.445l75.802-75.802c2.262-2.263 3.394-4.526 3.394-7.92s-1.132-5.657-3.394-7.919l-2.263-2.263c-2.264-2.263-4.526-3.394-7.921-3.394-3.393 0 .002 4.525-2.262 6.788l-114.267 114.269c-6.788 6.788-10.182 15.839-10.182 24.89s3.394 19.234 10.182 24.89l3.394 3.394-236.456 224.012c-5.657 5.656-9.051 13.575-9.051 21.496 0 7.918 3.394 15.839 9.051 21.496l16.97 19.234c5.657 5.657 13.577 11.313 21.497 11.313 7.919 0 15.839-5.656 21.496-11.313l222.878-238.72z"/></svg>

<svg xmlns="http://www.w3.org/2000/svg" viewBox="0 0 512 512"><path d="M503.459 423.132L359.775 277.185C354.118 280.579 349.592 282.842 342.804 285.104 336.018 287.368 328.097 288.499 320.177 288.499 311.127 288.499 302.076 286.236 294.156 283.972L247.77 332.622C253.427 337.147 261.346 339.41 269.265 340.54 279.449 340.54 289.631 337.147 297.549 329.227L298.681 328.097 442.365 480.832C448.022 486.489 455.941 489.882 463.861 489.882S479.701 486.489 485.357 480.832L503.459 462.73C509.116 457.073 512.509 449.153 512.509 441.234 512.509 433.313 509.116 427.657 503.459 423.132ZM159.523 231.931L202.515 191.201C200.252 183.282 199.121 175.362 199.121 167.443 199.121 153.866 203.646 140.29 210.435 128.976L119.925 35.072C106.349 21.496 82.59 21.496 69.014 35.072 45.255 58.83 44.123 97.297 65.619 123.318L159.523 231.931Z"/><path d="M295.287 245.506C302.076 252.294 311.127 255.689 320.177 255.689 329.228 255.689 338.278 252.294 345.068 245.506L459.336 131.238C463.861 126.712 463.861 119.924 459.336 115.399L457.072 113.136C454.81 110.873 452.547 109.742 449.154 109.742 445.759 109.742 443.497 110.873 441.233 113.136L365.43 188.938C362.037 192.332 357.512 193.463 352.987 193.463 348.46 193.463 343.935 191.2 340.542 188.938L338.278 186.675C331.49 179.887 331.49 169.704 338.278 162.916L414.081 87.115C418.607 82.589 418.607 75.801 414.081 71.275L411.817 69.013C409.556 66.75 407.292 65.619 403.899 65.619 400.504 65.619 398.242 66.75 395.978 69.013L320.176 144.814C316.782 148.208 312.257 149.34 307.732 149.34 303.205 149.34 298.681 147.077 295.287 144.814L293.024 142.552C289.631 139.158 288.498 134.632 288.498 130.107 288.498 125.581 290.762 121.056 293.024 117.662L368.826 41.86C371.088 39.597 372.22 37.334 372.22 33.94 372.22 30.546 371.088 28.283 368.826 26.021L366.563 23.758C364.299 21.495 362.037 20.364 358.642 20.364 355.249 20.364 358.644 24.889 356.38 27.152L242.113 141.421C235.325 148.209 231.931 157.26 231.931 166.311S235.325 185.545 242.113 191.201L245.507 194.595 9.051 418.607C3.394 424.263 0 432.182 0 440.103 0 448.021 3.394 455.942 9.051 461.599L26.021 480.833C31.678 486.49 39.598 492.146 47.518 492.146L47.518 492.146C55.437 492.146 63.357 486.49 69.014 480.833L291.892 242.113 295.287 245.506Z"/></svg>
